src/assets/img/agro/absolute-agro.svg

<svg width="252" height="504" viewBox="0 0 252 504" fill="none" xmlns="http://www.w3.org/2000/svg">
<path fill-rule="evenodd" clip-rule="evenodd" d="M121.472 170.131C118.893 164.033 115.14 158.253 111.445 152.785C105.629 144.183 99.4508 135.843 94.0547 126.968C88.4942 117.81 83.6253 107.913 81.5847 97.3186C80.9272 93.9232 80.5701 90.4653 80.5701 87.0018C80.5701 65.3522 100.664 41.9084 112.482 24.7669C115.973 19.708 120.429 15.5003 122.56 9.61239L126.034 0L129.594 9.58466C131.918 15.853 136.271 22.0077 140.177 27.3903C145.918 35.3109 151.995 42.9813 157.294 51.2198C162.906 59.9297 167.854 69.508 169.702 79.7962C170.541 84.4975 170.711 89.2676 170.076 94.003C168.393 106.631 159.205 123.59 152.788 134.673C147.54 143.729 141.871 152.57 135.693 161.018C133.165 164.471 130.569 167.968 127.718 171.165L123.779 175.582L121.472 170.131ZM114.494 504L25.7815 458.906L25.5151 458.714C16.9732 452.292 10.1487 444.695 5.88623 434.793C1.20432 423.908 0.240698 411.729 0.0479802 400.01C-0.178747 386.401 0.461754 372.796 0.643136 359.186L0.72249 353.071L6.13003 355.916C18.0955 362.202 30.129 368.351 42.1739 374.483C52.2462 379.616 62.3526 384.697 72.2322 390.205C84.1637 396.854 97.654 404.927 105.006 416.811C110.861 426.282 112.641 437.592 113.525 448.516C114.171 456.493 114.341 464.499 114.432 472.505C114.528 480.965 114.511 489.431 114.5 497.896L114.494 504ZM137.637 267.467C137.643 256.815 137.677 246.164 137.926 235.518C138.136 226.723 138.453 217.905 139.411 209.15C140.568 198.555 142.659 187.267 149.523 178.751C156.263 170.381 167.571 164.777 177.003 159.968C184.609 156.09 192.261 152.297 199.817 148.317C210.065 142.917 220.154 137.217 230.051 131.204C235.43 127.934 240.509 124.918 246.5 122.903L251.449 121.234L251.443 126.457C251.437 136.814 251.398 147.175 251.142 157.526C250.927 166.27 250.587 175.032 249.618 183.724C248.388 194.751 246.143 206.254 239.217 215.236C232.364 224.122 221.317 230.032 211.499 235.063C203.921 238.952 196.235 242.631 188.6 246.418C178.414 251.477 168.302 256.69 158.32 262.14C153.015 265.042 148.441 268.693 142.767 270.953L137.632 272.997L137.637 267.467ZM137.632 497.919C137.62 489.135 137.603 480.346 137.694 471.562C137.779 463.403 137.932 455.233 138.584 447.097C139.457 436.19 141.197 424.789 147.188 415.392C154.557 403.837 168.2 396.053 179.984 389.676C189.881 384.328 199.97 379.36 210.025 374.312C222.065 368.271 234.076 362.167 246.001 355.91L251.414 353.077L251.488 359.192C251.658 373.222 252.27 387.252 251.862 401.282C251.499 413.524 250.219 426.281 244.873 437.461C240.356 446.909 233.475 454.086 224.468 460.207L137.637 504L137.632 497.919ZM109.019 383.937C95.9705 377.089 82.8487 370.372 69.9933 363.167C62.5737 359.005 55.0803 354.979 47.5699 350.97C41.8848 347.938 36.177 344.929 30.5882 341.71C23.0438 337.36 15.0573 332.336 9.94464 325.108C3.81168 316.444 2.32091 305.088 1.55571 294.749C0.915204 286.17 0.796176 277.556 0.72249 268.96C0.637467 259.052 0.671476 249.15 0.682813 239.247L0.688543 233.013L45.1667 256.695C58.7987 263.957 72.7027 270.901 85.6884 279.299C93.6012 284.415 101.327 290.326 106.281 298.525C111.921 307.865 113.315 319.231 113.978 329.923C114.477 338.036 114.545 346.173 114.562 354.298C114.585 363.076 114.528 371.848 114.505 380.62L114.488 386.803L109.019 383.937ZM109.495 271.016C101.401 268.012 93.5786 263.305 86.0796 259.052C80.4624 255.872 74.8566 252.641 69.0807 249.763C55.4374 242.966 41.5277 236.386 28.6383 228.227C20.7652 223.242 13.1585 217.422 8.32924 209.28C2.79143 199.94 1.52743 188.504 0.966282 177.864C0.541169 169.802 0.535534 161.728 0.552538 153.654C0.575211 145.018 0.64885 136.377 0.677191 127.735L0.699894 121.557L88.6245 167.678C114.585 184.541 116.025 214.686 115.333 242.626C115.123 250.944 114.692 259.245 114.545 267.563L114.449 272.855L109.495 271.016ZM137.592 380.682C137.411 366.755 136.759 352.827 137.076 338.899C137.348 326.856 138.487 314.292 143.6 303.232C148.197 293.295 155.424 285.857 164.397 279.765C169.481 276.307 174.996 273.44 180.375 270.465C189.104 265.638 197.913 260.948 206.772 256.355C216.102 251.512 225.483 246.76 235.011 242.308C238.746 240.56 242.504 238.782 246.353 237.289L251.443 235.318L251.449 240.792C251.454 249.916 251.465 259.04 251.335 268.159C251.216 276.318 251.012 284.477 250.298 292.608C249.34 303.623 247.452 315.036 241.365 324.495C233.871 336.134 220.302 343.975 208.416 350.448C198.587 355.796 188.56 360.754 178.573 365.784C166.698 371.757 154.846 377.776 143.079 383.953L137.671 386.792L137.592 380.682ZM129.027 127.201L129.09 126.974C129.486 125.605 130.427 124.152 131.153 122.915C132.428 120.729 133.743 118.565 134.99 116.362C138.317 110.508 141.254 104.37 143.056 97.8635C148.288 78.9393 141.679 63.9615 126.159 52.5774L126.063 52.509L125.966 52.5774C104.195 68.5492 101.746 89.5567 114.925 112.387C119.964 121.114 118.331 124.357 128.874 127.162L129.027 127.201ZM26.0536 395.451V395.655C26.0536 406.012 25.6852 420.916 31.4327 429.887C34.9017 435.298 40.3771 438.807 46.0169 441.612C60.5104 448.828 74.6015 456.806 88.9023 464.386L89.1347 464.505V464.244C89.1347 454.262 89.5825 439.863 84.4754 431.028C81.1085 425.214 75.3667 421.155 69.7495 417.72C62.9364 413.558 55.8455 409.827 48.783 406.114C44.3334 403.775 39.8612 401.481 35.3267 399.317C32.5096 397.972 29.2561 396.308 26.252 395.508L26.0536 395.451ZM163.002 230.095L163.189 230.049C166.454 229.288 169.804 227.852 172.888 226.552C177.371 224.655 181.787 222.601 186.168 220.483C190.448 218.41 194.682 216.264 198.87 214.015C201.875 212.403 204.907 210.773 207.741 208.871C213.013 205.333 218.244 201.24 221.424 195.619C226.31 186.96 226.078 173.884 226.078 164.163V163.965L225.879 164.01C212.145 167.201 194.228 178.495 182.053 185.899C176.493 189.277 169.832 193.45 166.573 199.264C162.265 206.964 163.002 221.18 163.002 229.896V230.095ZM226.078 395.457L225.879 395.502C223.028 396.166 219.576 397.949 216.907 399.21C212.242 401.413 207.639 403.746 203.054 406.114C195.997 409.765 188.957 413.461 182.042 417.379C176.203 420.683 169.969 424.726 166.687 430.79C162.09 439.278 163.002 454.694 163.002 464.244V464.511L206.007 441.498C211.607 438.296 217.19 434.475 220.687 428.916C226.287 420.007 226.078 405.887 226.078 395.655V395.457ZM26.0536 275.365V275.62C26.0536 285.471 25.3054 300.392 30.1007 309.176C33.3939 315.2 39.2605 319.209 45.0987 322.496C51.9969 326.38 58.997 330.076 66.0312 333.704C70.5601 336.044 75.1117 338.349 79.7199 340.529C82.5823 341.886 85.8755 343.55 88.9306 344.362L89.1347 344.419V344.214C89.1347 333.256 88.9986 319.078 82.6389 309.704C78.1271 303.055 70.6054 298.547 63.6959 294.754C51.4016 287.997 38.6766 282.053 26.286 275.483L26.0536 275.365ZM26.0536 163.965V164.163C26.0536 174.253 25.7419 188.652 31.274 197.424C34.777 202.983 40.5358 206.793 46.1246 210.007C52.9151 213.907 59.9039 217.479 66.9438 220.919C71.0305 222.918 75.1513 224.855 79.3401 226.626C82.4066 227.921 85.6885 229.294 88.9363 230.049L89.1347 230.095V229.896C89.1347 220.175 89.4692 206.248 84.1864 197.777C80.5191 191.906 74.1877 188.056 68.2021 184.905C62.6813 182.004 57.3023 178.847 51.8665 175.787C44.2598 171.506 34.7486 165.986 26.252 164.01L26.0536 163.965ZM163.002 344.47L163.229 344.35C174.741 338.241 186.656 332.972 198.4 327.328C205.264 324.029 212.967 320.157 217.87 314.156C225.908 304.322 226.078 287.748 226.078 275.62V275.365L225.851 275.483C211.556 283.069 197.459 291.041 182.966 298.258C177.326 301.063 171.85 304.571 168.381 309.982C162.628 318.953 163.002 333.858 163.002 344.214V344.47Z" fill="#00B052"/>
</svg>

<svg width="252" height="504" fill="none" xmlns="http://www.w3.org/2000/svg"><path fill-rule="evenodd" clip-rule="evenodd" d="M121.472 170.131c-2.579-6.098-6.332-11.878-10.027-17.346-5.816-8.602-11.994-16.942-17.39-25.817-5.56-9.158-10.43-19.055-12.47-29.65a54.317 54.317 0 01-1.015-10.316c0-21.65 20.094-45.094 31.912-62.235 3.491-5.059 7.947-9.267 10.078-15.155L126.034 0l3.56 9.585c2.324 6.268 6.677 12.423 10.583 17.805 5.741 7.92 11.818 15.591 17.117 23.83 5.612 8.71 10.56 18.288 12.408 28.576.839 4.701 1.009 9.472.374 14.207-1.683 12.628-10.871 29.587-17.288 40.67-5.248 9.056-10.917 17.897-17.095 26.345-2.528 3.453-5.124 6.95-7.975 10.147l-3.939 4.417-2.307-5.451zM114.494 504l-88.713-45.094-.266-.192c-8.542-6.422-15.366-14.019-19.629-23.921C1.204 423.908.241 411.729.048 400.01c-.227-13.609.414-27.214.595-40.824l.08-6.115 5.407 2.845c11.966 6.286 23.999 12.435 36.044 18.567 10.072 5.133 20.179 10.214 30.058 15.722 11.932 6.649 25.422 14.722 32.774 26.606 5.855 9.471 7.635 20.781 8.519 31.705.646 7.977.816 15.983.907 23.989.096 8.46.079 16.926.068 25.391l-.006 6.104zm23.143-236.533c.006-10.652.04-21.303.289-31.949.21-8.795.527-17.613 1.485-26.368 1.157-10.595 3.248-21.883 10.112-30.399 6.74-8.37 18.048-13.974 27.48-18.783 7.606-3.878 15.258-7.671 22.814-11.651a569.688 569.688 0 0030.234-17.113c5.379-3.27 10.458-6.286 16.449-8.301l4.949-1.669-.006 5.223c-.006 10.357-.045 20.718-.301 31.069-.215 8.744-.555 17.506-1.524 26.198-1.23 11.027-3.475 22.53-10.401 31.512-6.853 8.886-17.9 14.796-27.718 19.827-7.578 3.889-15.264 7.568-22.899 11.355-10.186 5.059-20.298 10.272-30.28 15.722-5.305 2.902-9.879 6.553-15.553 8.813l-5.135 2.044.005-5.53zm-.005 230.452c-.012-8.784-.029-17.573.062-26.357.085-8.159.238-16.329.89-24.465.873-10.907 2.613-22.308 8.604-31.705 7.369-11.555 21.012-19.339 32.796-25.716 9.897-5.348 19.986-10.316 30.041-15.364 12.04-6.041 24.051-12.145 35.976-18.402l5.413-2.833.074 6.115c.17 14.03.782 28.06.374 42.09-.363 12.242-1.643 24.999-6.989 36.179-4.517 9.448-11.398 16.625-20.405 22.746L137.637 504l-.005-6.081zm-28.613-113.982c-13.049-6.848-26.17-13.565-39.026-20.77-7.42-4.162-14.913-8.188-22.423-12.197-5.685-3.032-11.393-6.041-16.982-9.26-7.544-4.35-15.53-9.374-20.643-16.602-6.133-8.664-7.624-20.02-8.39-30.359-.64-8.579-.759-17.193-.833-25.789-.085-9.908-.05-19.81-.04-29.713l.007-6.234 44.478 23.682c13.632 7.262 27.536 14.206 40.521 22.604 7.913 5.116 15.639 11.027 20.593 19.226 5.64 9.34 7.034 20.706 7.697 31.398.499 8.113.567 16.25.584 24.375.023 8.778-.034 17.55-.057 26.322l-.017 6.183-5.469-2.866zm.476-112.921c-8.094-3.004-15.916-7.711-23.415-11.964-5.618-3.18-11.223-6.411-17-9.289-13.643-6.797-27.552-13.377-40.442-21.536-7.873-4.985-15.48-10.805-20.309-18.947-5.538-9.34-6.802-20.776-7.363-31.416-.425-8.062-.43-16.136-.413-24.21.022-8.636.096-17.277.124-25.919l.023-6.178 87.924 46.121c25.961 16.863 27.401 47.008 26.709 74.948-.21 8.318-.641 16.619-.788 24.937l-.096 5.292-4.954-1.839zm28.097 109.666c-.181-13.927-.833-27.855-.516-41.783.272-12.043 1.411-24.607 6.524-35.667 4.597-9.937 11.824-17.375 20.797-23.467 5.084-3.458 10.599-6.325 15.978-9.3a1115.798 1115.798 0 0126.397-14.11c9.33-4.843 18.711-9.595 28.239-14.047 3.735-1.748 7.493-3.526 11.342-5.019l5.09-1.971.006 5.474c.005 9.124.016 18.248-.114 27.367-.119 8.159-.323 16.318-1.037 24.449-.958 11.015-2.846 22.428-8.933 31.887-7.494 11.639-21.063 19.48-32.949 25.953-9.829 5.348-19.856 10.306-29.843 15.336-11.875 5.973-23.727 11.992-35.494 18.169l-5.408 2.839-.079-6.11zm-8.565-253.481l.063-.227c.396-1.369 1.337-2.822 2.063-4.059 1.275-2.186 2.59-4.35 3.837-6.553 3.327-5.854 6.264-11.992 8.066-18.498 5.232-18.925-1.377-33.903-16.897-45.287l-.096-.068-.097.068c-21.771 15.972-24.22 36.98-11.041 59.81 5.039 8.727 3.406 11.97 13.949 14.775l.153.039zM26.054 395.451v.204c0 10.357-.369 25.261 5.379 34.232 3.469 5.411 8.944 8.92 14.584 11.725 14.493 7.216 28.584 15.194 42.885 22.774l.233.119v-.261c0-9.982.447-24.381-4.66-33.216-3.366-5.814-9.108-9.873-14.725-13.308-6.814-4.162-13.904-7.893-20.967-11.606-4.45-2.339-8.922-4.633-13.456-6.797-2.817-1.345-6.07-3.009-9.075-3.809l-.198-.057zm136.948-165.356l.187-.046c3.265-.761 6.615-2.197 9.699-3.497 4.483-1.897 8.899-3.951 13.28-6.069a341.079 341.079 0 0012.702-6.468c3.005-1.612 6.037-3.242 8.871-5.144 5.272-3.538 10.503-7.631 13.683-13.252 4.886-8.659 4.654-21.735 4.654-31.456v-.198l-.199.045c-13.734 3.191-31.651 14.485-43.826 21.889-5.56 3.378-12.221 7.551-15.48 13.365-4.308 7.7-3.571 21.916-3.571 30.632v.199zm63.076 165.362l-.199.045c-2.851.664-6.303 2.447-8.972 3.708-4.665 2.203-9.268 4.536-13.853 6.904-7.057 3.651-14.097 7.347-21.012 11.265-5.839 3.304-12.073 7.347-15.355 13.411-4.597 8.488-3.685 23.904-3.685 33.454v.267l43.005-23.013c5.6-3.202 11.183-7.023 14.68-12.582 5.6-8.909 5.391-23.029 5.391-33.261v-.198zM26.054 275.365v.255c0 9.851-.749 24.772 4.047 33.556 3.293 6.024 9.16 10.033 14.998 13.32 6.898 3.884 13.898 7.58 20.932 11.208 4.53 2.34 9.08 4.645 13.689 6.825 2.862 1.357 6.156 3.021 9.21 3.833l.205.057v-.205c0-10.958-.136-25.136-6.496-34.51-4.512-6.649-12.034-11.157-18.943-14.95-12.294-6.757-25.02-12.701-37.41-19.271l-.232-.118zm0-111.4v.198c0 10.09-.312 24.489 5.22 33.261 3.503 5.559 9.262 9.369 14.85 12.583 6.791 3.9 13.78 7.472 20.82 10.912 4.087 1.999 8.207 3.936 12.396 5.707 3.067 1.295 6.349 2.668 9.596 3.423l.199.046v-.199c0-9.721.334-23.648-4.949-32.119-3.667-5.871-9.998-9.721-15.984-12.872-5.52-2.901-10.9-6.058-16.335-9.118-7.607-4.281-17.118-9.801-25.615-11.777l-.198-.045zM163.002 344.47l.227-.12c11.512-6.109 23.427-11.378 35.171-17.022 6.864-3.299 14.567-7.171 19.47-13.172 8.038-9.834 8.208-26.408 8.208-38.536v-.255l-.227.118c-14.295 7.586-28.392 15.558-42.885 22.775-5.64 2.805-11.116 6.313-14.585 11.724-5.753 8.971-5.379 23.876-5.379 34.232v.256z" fill="#00B052"/></svg>
